src/assets/icons/filters/categories/furniture_selected.svg

<svg width="48" height="38" viewBox="0 0 48 38" fill="none" xmlns="http://www.w3.org/2000/svg">
<path fill-rule="evenodd" clip-rule="evenodd" d="M46.7517 22.4068C46.7841 22.3663 46.8326 22.342 46.8634 22.2967C47.511 21.3447 47.8996 20.2275 47.9806 19.0714C48.0457 18.207 47.9385 17.3383 47.6653 16.5156C47.3921 15.6929 46.9583 14.9326 46.389 14.2789C45.982 13.8232 45.514 13.426 44.9982 13.0986V9.02975C44.9982 4.04938 40.3352 0 34.6003 0H30.0279C28.8535 0.00283584 27.6961 0.281527 26.6491 0.813618C25.602 1.34571 24.6946 2.11632 24 3.06335C22.627 1.21757 20.4461 0 17.9705 0H13.3981C7.66323 0 3.0002 4.04938 3.0002 9.02975V13.0791C2.08066 13.6764 1.32469 14.4937 0.800804 15.4569C0.276915 16.4202 0.00166629 17.4989 0 18.5954C0 19.9749 0.45335 21.2961 1.24509 22.4068C0.477636 23.2164 0 24.3012 0 25.4993V29.9988C0.00128573 31.1922 0.475922 32.3363 1.31977 33.1801C2.16361 34.024 3.30774 34.4986 4.50111 34.4999V35.9992C4.50111 36.3968 4.65907 36.7782 4.94025 37.0594C5.22142 37.3405 5.60277 37.4985 6.00041 37.4985C6.39804 37.4985 6.77939 37.3405 7.06056 37.0594C7.34174 36.7782 7.4997 36.3968 7.4997 35.9992V34.4983H40.4987V35.9992C40.4987 36.397 40.6567 36.7786 40.9381 37.0599C41.2194 37.3412 41.6009 37.4993 41.9988 37.4993C42.3966 37.4993 42.7782 37.3412 43.0595 37.0599C43.3408 36.7786 43.4989 36.397 43.4989 35.9992V34.4983C44.692 34.497 45.8359 34.0226 46.6797 33.1791C47.5235 32.3356 47.9983 31.1919 48 29.9988V25.4977C48 24.2995 47.5207 23.2147 46.7533 22.4052L46.7517 22.4068Z" fill="#13C1AC" fill-opacity="0.7"/>
<path fill-rule="evenodd" clip-rule="evenodd" d="M44.9982 29.9988C44.9978 30.3963 44.8397 30.7774 44.5586 31.0585C44.2775 31.3395 43.8964 31.4977 43.4989 31.4981H4.49787C4.10037 31.4977 3.71927 31.3395 3.43819 31.0585C3.15711 30.7774 2.99901 30.3963 2.99858 29.9988V25.4977C2.99858 24.6719 3.67051 23.9984 4.49787 23.9984H43.4973C44.3246 23.9984 44.9966 24.6703 44.9966 25.4993V29.9988H44.9982ZM6.59624 14.9994C7.28755 15.0011 7.96376 15.2017 8.54411 15.5774C9.12446 15.953 9.5844 16.4878 9.86902 17.1178C10.1536 17.7478 10.2509 18.4464 10.1491 19.1302C10.0474 19.814 9.75098 20.454 9.29528 20.9739C9.28881 20.9804 9.28557 20.9901 9.28233 20.9998H4.49787C4.30844 20.9998 4.1271 21.0322 3.94414 21.0548C3.92309 21.0306 3.91824 20.9982 3.89557 20.9723C3.31644 20.3161 2.99739 19.4706 2.99858 18.5954C2.99858 16.6136 4.61283 14.9994 6.59462 14.9994H6.59624ZM6.00041 9.02975C6.00041 5.70411 9.31795 3.0002 13.3981 3.0002H17.9705C19.1708 3.00149 20.3217 3.4788 21.1707 4.32746C22.0197 5.17611 22.4974 6.32683 22.4991 7.52722V20.9982H12.7359C13.0322 20.2404 13.1941 19.4276 13.1941 18.5954C13.1915 16.8465 12.4955 15.17 11.2587 13.9335C10.0219 12.6969 8.34516 12.0013 6.59624 11.9992C6.39223 11.9992 6.19956 12.0413 6.00041 12.0591V9.02975V9.02975ZM30.0279 3.0002H34.6003C38.6804 3.0002 41.9996 5.70411 41.9996 9.02975V12.0364C41.9575 12.0332 41.9186 12.0202 41.8765 12.017C41.0121 11.9515 40.1432 12.0584 39.3205 12.3317C38.4977 12.6049 37.7375 13.0389 37.084 13.6086C36.4273 14.174 35.8893 14.8641 35.5013 15.639C35.1133 16.4139 34.883 17.2581 34.8237 18.1226C34.7602 19.1041 34.9179 20.0874 35.2852 20.9998H25.4977V7.52884C25.499 6.32817 25.9765 5.17703 26.8255 4.32803C27.6745 3.47902 28.8256 3.00149 30.0263 3.0002H30.0279ZM43.4989 20.9998H38.648C38.6092 20.9237 38.593 20.8427 38.5379 20.7764C38.119 20.2254 37.8678 19.5653 37.8144 18.8752C37.761 18.1851 37.9078 17.4943 38.237 16.8855C38.5663 16.2767 39.0641 15.7757 39.6709 15.4426C40.2776 15.1095 40.9675 14.9584 41.658 15.0075C42.1297 15.0404 42.5903 15.1665 43.013 15.3785C43.4357 15.5906 43.8122 15.8844 44.1206 16.2429C44.7505 16.9682 45.0597 17.8976 44.9901 18.8545C44.9431 19.4859 44.7326 20.0931 44.3829 20.6128C44.2927 20.7527 44.2275 20.9072 44.1902 21.0694C43.962 21.0279 43.7308 21.0046 43.4989 20.9998ZM46.7533 22.4068C46.7857 22.3663 46.8342 22.342 46.8634 22.2967C47.511 21.3447 47.8996 20.2275 47.9806 19.0714C48.0457 18.207 47.9385 17.3383 47.6653 16.5156C47.3921 15.6929 46.9583 14.9326 46.389 14.2789C45.982 13.8232 45.514 13.426 44.9982 13.0986V9.02975C44.9982 4.04938 40.3352 0 34.6003 0H30.0279C28.8535 0.00283584 27.6961 0.281527 26.6491 0.813618C25.602 1.34571 24.6946 2.11632 24 3.06335C22.627 1.21757 20.4461 0 17.9705 0H13.3981C7.66323 0 3.0002 4.04938 3.0002 9.02975V13.0791C2.08066 13.6764 1.32469 14.4937 0.800804 15.4569C0.276915 16.4202 0.00166629 17.4989 0 18.5954C0 19.9749 0.45335 21.2961 1.24509 22.4068C0.477636 23.2164 0 24.3012 0 25.4993V29.9988C0.00128573 31.1922 0.475922 32.3363 1.31977 33.1801C2.16361 34.024 3.30774 34.4986 4.50111 34.4999V35.9992C4.50111 36.3968 4.65907 36.7782 4.94025 37.0594C5.22142 37.3405 5.60277 37.4985 6.00041 37.4985C6.39804 37.4985 6.77939 37.3405 7.06056 37.0594C7.34174 36.7782 7.4997 36.3968 7.4997 35.9992V34.4983H40.4987V35.9992C40.4987 36.397 40.6567 36.7786 40.9381 37.0599C41.2194 37.3412 41.6009 37.4993 41.9988 37.4993C42.3966 37.4993 42.7782 37.3412 43.0595 37.0599C43.3408 36.7786 43.4989 36.397 43.4989 35.9992V34.4983C44.692 34.497 45.8359 34.0226 46.6797 33.1791C47.5235 32.3356 47.9983 31.1919 48 29.9988V25.4977C48 24.2995 47.5207 23.2147 46.7533 22.4052V22.4068Z" fill="#0F9989"/>
<path fill-rule="evenodd" clip-rule="evenodd" d="M6.59644 14.9994C7.28775 15.001 7.96396 15.2017 8.54431 15.5773C9.12466 15.953 9.5846 16.4878 9.86922 17.1178C10.1538 17.7478 10.2511 18.4464 10.1493 19.1302C10.0476 19.814 9.75118 20.454 9.29548 20.9739C9.28901 20.9803 9.28577 20.9901 9.28253 20.9998H4.49807C4.30864 20.9998 4.1273 21.0321 3.94434 21.0548C3.92329 21.0305 3.91843 20.9982 3.89577 20.9722C3.31664 20.316 2.99759 19.4706 2.99878 18.5954C2.99878 16.6136 4.61303 14.9994 6.59482 14.9994H6.59644ZM43.4991 20.9998H38.6482C38.6094 20.9237 38.5932 20.8427 38.5381 20.7763C38.1192 20.2254 37.868 19.5653 37.8146 18.8752C37.7612 18.1851 37.908 17.4943 38.2372 16.8854C38.5665 16.2766 39.0643 15.7757 39.6711 15.4426C40.2778 15.1095 40.9677 14.9584 41.6582 15.0075C42.1299 15.0403 42.5905 15.1664 43.0132 15.3785C43.4359 15.5906 43.8124 15.8843 44.1208 16.2428C44.7507 16.9682 45.0599 17.8976 44.9903 18.8545C44.9433 19.4859 44.7328 20.0931 44.3831 20.6128C44.2929 20.7527 44.2277 20.9072 44.1904 21.0694C43.9622 21.0279 43.731 21.0046 43.4991 20.9998V20.9998Z" fill="white" fill-opacity="0.6"/>
</svg>

<svg width="48" height="38" viewBox="0 0 48 38" fill="none" xmlns="http://www.w3.org/2000/svg"><path fill-rule="evenodd" clip-rule="evenodd" d="M46.752 22.407c.032-.04.08-.065.111-.11a6.562 6.562 0 001.118-3.226 6.549 6.549 0 00-1.592-4.792 6.625 6.625 0 00-1.39-1.18v-4.07C44.998 4.05 40.334 0 34.6 0h-4.572A7.498 7.498 0 0024 3.063C22.627 1.218 20.446 0 17.97 0h-4.572C7.663 0 3 4.05 3 9.03v4.05a6.59 6.59 0 00-3 5.515c0 1.38.453 2.701 1.245 3.812A4.482 4.482 0 000 25.499V30a4.506 4.506 0 004.501 4.5V36A1.5 1.5 0 007.5 36v-1.5h32.999v1.5a1.5 1.5 0 103 0v-1.5a4.506 4.506 0 004.501-4.5v-4.501c0-1.199-.48-2.283-1.247-3.093l-.001.002z" fill="#13C1AC" fill-opacity=".7"/><path fill-rule="evenodd" clip-rule="evenodd" d="M44.998 29.999a1.5 1.5 0 01-1.5 1.5h-39a1.501 1.501 0 01-1.5-1.5v-4.501c0-.826.673-1.5 1.5-1.5h39a1.5 1.5 0 011.499 1.501V30h.001zm-38.402-15a3.6 3.6 0 012.7 5.975c-.007.006-.01.016-.014.026H4.498c-.19 0-.37.032-.554.055-.02-.024-.026-.057-.048-.083a3.585 3.585 0 01-.897-2.377A3.601 3.601 0 016.595 15h.001zM6 9.03C6 5.705 9.318 3 13.398 3h4.573a4.534 4.534 0 014.528 4.527v13.471h-9.763c.296-.758.458-1.57.458-2.403A6.606 6.606 0 006.596 12c-.204 0-.396.042-.596.06V9.03zM30.028 3H34.6C38.68 3 42 5.704 42 9.03v3.006c-.042-.003-.081-.016-.123-.019a6.54 6.54 0 00-4.793 1.592 6.548 6.548 0 00-2.26 4.514A6.569 6.569 0 0035.285 21h-9.787V7.529A4.534 4.534 0 0130.026 3h.002zm13.47 18h-4.85c-.039-.076-.055-.157-.11-.224a3.6 3.6 0 014.475-5.397c.423.212.8.505 1.108.864.63.725.939 1.655.87 2.612a3.636 3.636 0 01-.608 1.758c-.09.14-.156.294-.193.456A4.37 4.37 0 0043.5 21zm3.255 1.407c.033-.04.081-.065.11-.11a6.562 6.562 0 001.118-3.226 6.549 6.549 0 00-1.592-4.792 6.625 6.625 0 00-1.39-1.18v-4.07C44.998 4.05 40.334 0 34.6 0h-4.572A7.498 7.498 0 0024 3.063C22.627 1.218 20.446 0 17.97 0h-4.572C7.663 0 3 4.05 3 9.03v4.05a6.59 6.59 0 00-3 5.515c0 1.38.453 2.701 1.245 3.812A4.482 4.482 0 000 25.499V30a4.506 4.506 0 004.501 4.5V36A1.5 1.5 0 007.5 36v-1.5h32.999v1.5a1.5 1.5 0 103 0v-1.5a4.506 4.506 0 004.501-4.5v-4.501c0-1.199-.48-2.283-1.247-3.093v.002z" fill="#0F9989"/><path fill-rule="evenodd" clip-rule="evenodd" d="M6.596 15a3.6 3.6 0 012.7 5.974c-.007.006-.01.016-.013.026H4.498c-.19 0-.37.032-.554.055-.02-.024-.026-.057-.048-.083a3.585 3.585 0 01-.897-2.377A3.601 3.601 0 016.595 15h.001zM43.5 21h-4.85c-.04-.076-.056-.157-.11-.224a3.6 3.6 0 014.474-5.397c.423.212.8.505 1.108.864.63.725.939 1.655.87 2.612a3.636 3.636 0 01-.608 1.758c-.09.14-.155.294-.193.456a4.37 4.37 0 00-.69-.07z" fill="#fff" fill-opacity=".6"/></svg>
